X: 1
T: Hand Me Down The Tacklings
M: 4/4
L: 1/8
R: reel
K: Amaj
EAAB c2 BA | GEED GEED | EAAB c2 BA | dBGc BA A2 :|
Aeef e2 dc | Bdde d2 cB | Aeef e2 dc | dBGc BA A2 |
Aeef e2 dc | Bdde d2 cB | c3 A B2 Be | dBGc BA A2 |
